X:1
T:Angels’ Song, LM
T:Orlando Gibbons (1583-1625)
T:Angels’ Song, LM
T:Public Domain
C:Orlando Gibbons (1583-1625)
Z:Public Domain
%%score ( 1 2 ) ( 3 4 )
L:1/8
M:3/4
K:G
V:1 treble 
V:2 treble 
V:3 bass 
V:4 bass 
V:1
 [DG]2 | [DB]4 [EG]2 | [FA]4 [GB]2 | (c2 B2) [FA]2 | G4 [DG]2 | [DB]4 [E^c]2 | [Fd]4 A2 | %7
 (G2 F2) [E^c]2 | [Fd]4 [DB]2 | [Gc]4 [Gd]2 | [Ge]4 [Gd]2 | (G2 F2) [GB]2 | [FA]4 [Gd]2 | %13
 [Gc]4 [GB]2 | [FA]4 G2 | (c2 B2) [FA]2 | G4 |] %17
V:2
 x2 | x6 | x6 | G4 x2 | G4 x2 | x6 | x4 A2 | d4 x2 | x6 | x6 | x6 | c4 x2 | x6 | x6 | x4 G2 | %15
 G4 x2 | G4 |] %17
V:3
 [G,B,]2 | [G,B,]4 [E,B,]2 | [D,D]4 [G,D]2 | ([C,E]2 [D,D]2) [D,C]2 | [G,,B,]4 [G,B,]2 | %5
 [G,B,]4 [E,G,]2 | [D,A,]4 [F,D]2 | ([B,D]2 A,2) [A,,A,]2 | [D,A,]4 [G,B,]2 | [E,G,]4 [G,B,]2 | %10
 C4 [B,D]2 | (E2 A,2) [G,D]2 | [D,D]4 [B,,D]2 | [C,E]4 [G,D]2 | (D2 C2) [E,B,]2 | %15
 [C,E]2 [C,D]2 [D,C]2 | [G,,B,]4 |] %17
V:4
 x2 | x6 | x6 | x6 | x6 | x6 | x6 | x2 A,2 x2 | x6 | x6 | C4 x2 | A,4 x2 | x6 | x6 | D,4 x2 | x6 | %16
 x4 |] %17

